X: 20821
T: Johnny Wilmot's Fiddle
R: reel
M: 4/4
K: Edorian
|:e|BE E/E/E {F}EDB,E|DB,A,B, DEFd|AD D/D/D FEDF|ABdA {d}BAFe|
BE E/E/E {F}EDB,E|DB,A,B, DEFd|AD D/D/D FEDF|ABdF E/E/E E:|
d|B<eef {f}gfeg|{fg}fedf edBA|B/c/d Ad FDDF|ABdA {d}BAFd|
B<eef {f}gfeg|{fg}fedf edBA|B/c/d Ad FDDF|ABdF E/E/E Ed|
B<eef {f}gfeg|{fg}fedf edBA|B/c/d Ad FDDF|ABdA {d}BAFe|
BE E/E/E {F}EDB,E|DB,A,B, DEFd|AD D/D/D FEDF|ABdF E/E/E E||

